X:1
T:High Dutch Tune, 88.88.66
T:High Dutch Tune, 88.88.66
T:Giles Farnaby, 1621
T:Public Domain Courtesy of the Cyber Hymnal™
C:Giles Farnaby, 1621
Z:Public Domain
Z:Courtesy of the Cyber Hymnal™
%%score ( 1 2 ) ( 3 4 )
L:1/8
Q:1/4=112
M:none
K:F
V:1 treble 
V:2 treble 
V:3 bass 
V:4 bass 
V:1
 [FA]4 [FA]2"^Tune in tenor" [Fd]2 [Fc]2 [FB]2 [FA]2 [DG]2 [D^F]4 | %1
 [Af]4 [Af]2 [Df]2 e2 z [Ac]2 [G=B]2 [Ec]4 x | [FA]4 [Fc]2 [Fd]2 [Dd]2 [Fc]2 [Fd]2 [Ec]2 [FA]4 x2 | %3
 [Af]4 [Af]2 [Bd]2 [Gg]2 (fe) [Bd]2 [Gc]2 [Ac]4 | [Af]4 [Af]2 [Bf]2 [Af]2 [Gd]2 [^Fd]4 | %5
 [Df]4 [Ee]2 [Fd]2 c3 z B [FA]8 |] %6
V:2
 x20 | x8 G3 (c2 E) x6 | x22 | x10 c2 x8 | x16 | x8 F2 E2 x9 |] %6
V:3
 [F,C]4 [F,C]2 [B,,B,]2 A,2 z [F,C]2 [G,B,]2 [D,A,]4 x | %1
 [D,F,]4 [F,A,]2 [D,B,]2 [C,C]2 [E,C]2 [F,D]2 [G,D]2 [C,C]4 | %2
 C4 z2 A,2 [D,A,]2 [D,F,]2 [A,,A,]2 [B,,G,]2 [C,G,]2 F,4 | %3
 [F,C]4 [F,D]2 [G,D]2 [G,E]2 [A,C]2 [B,D]2 [CE]2 [F,F]4 | %4
 [F,C]4 [D,D]2 [B,,D]2 [F,C]2 [G,B,]2 [D,A,]4 | [D,F,]4 [C,G,]2 [B,,B,]2 [C,A,]2 [C,G,]2 F,8 x |] %6
V:4
 x8 F,3 (D2 D,) x6 | x20 | F,2 (F,4 x8 F,4) x4 | x20 | x16 | x12 F,8 x |] %6

